packages/icons/src/emoji/svg/beer.svg

<svg width="120" height="120" viewBox="0 0 120 120" fill="none" xmlns="http://www.w3.org/2000/svg">
<path d="M37.9689 30.4688L33.1221 30.7031L34.0971 102.103C34.0971 114.084 51.4783 118.659 67.7908 118.659V30.4688H37.9689ZM97.6127 30.4688L102.46 30.7031L101.485 102.103C101.485 114.084 84.1033 118.659 67.7908 118.659V30.4688H97.6127Z" fill="#E0E0E0"/>
<path d="M67.7906 22.3687C59.1281 22.3687 51.0188 23.3624 44.9625 25.1624C39.7594 26.7093 36.6562 28.7343 36.6562 30.5812C36.6562 32.428 39.7594 34.453 44.9625 35.9999C51.0188 37.7999 59.1281 38.7937 67.7906 38.7937C76.4531 38.7937 84.5625 37.7999 90.6188 35.9999C95.8219 34.453 98.925 32.428 98.925 30.5812C98.925 28.7343 95.8219 26.7093 90.6188 25.1624C84.5625 23.3624 76.4531 22.3687 67.7906 22.3687Z" fill="#FAFAFA"/>
<path d="M40.0596 57.7876L40.3877 97.5095C40.6502 99.7407 42.4783 101.888 44.9721 103.031C49.4346 105.084 58.1721 107.1 67.8471 107.1C77.0815 107.1 84.9377 105.263 89.5033 103.331C92.3908 102.113 94.7252 99.6563 95.0721 97.5376L95.5127 57.7876" fill="#FACC30"/>
<path d="M67.7908 64.6313C83.1064 64.6313 95.5221 61.5673 95.5221 57.7876C95.5221 54.0079 83.1064 50.9438 67.7908 50.9438C52.4753 50.9438 40.0596 54.0079 40.0596 57.7876C40.0596 61.5673 52.4753 64.6313 67.7908 64.6313Z" fill="#E4A324"/>
<path d="M67.7904 40.5188C48.0186 40.5188 33.1123 36.2532 33.1123 30.5907C33.1123 24.9282 48.0186 20.6626 67.7904 20.6626C87.5623 20.6626 102.469 24.9282 102.469 30.5907C102.459 36.2438 87.5529 40.5188 67.7904 40.5188ZM67.7904 22.3688C59.1279 22.3688 51.0186 23.3626 44.9623 25.1626C39.7592 26.7095 36.6561 28.7345 36.6561 30.5813C36.6561 32.4282 39.7592 34.4532 44.9623 36.0001C51.0186 37.8001 59.1279 38.7938 67.7904 38.7938C76.4529 38.7938 84.5623 37.8001 90.6186 36.0001C95.8217 34.4532 98.9248 32.4282 98.9248 30.5813C98.9248 28.7345 95.8217 26.7095 90.6186 25.1626C84.5623 23.3626 76.4529 22.3688 67.7904 22.3688Z" fill="#CECFD0"/>
<path d="M80.4195 101.466C81.1496 101.466 81.7414 100.874 81.7414 100.144C81.7414 99.4136 81.1496 98.8218 80.4195 98.8218C79.6895 98.8218 79.0977 99.4136 79.0977 100.144C79.0977 100.874 79.6895 101.466 80.4195 101.466Z" fill="#E4A324"/>
<path d="M83.3537 97.4157C83.8559 97.4157 84.2631 97.0085 84.2631 96.5063C84.2631 96.0041 83.8559 95.5969 83.3537 95.5969C82.8515 95.5969 82.4443 96.0041 82.4443 96.5063C82.4443 97.0085 82.8515 97.4157 83.3537 97.4157Z" fill="#E4A324"/>
<path d="M77.485 96.4125C78.3703 96.4125 79.0881 95.6948 79.0881 94.8094C79.0881 93.924 78.3703 93.2063 77.485 93.2063C76.5996 93.2063 75.8818 93.924 75.8818 94.8094C75.8818 95.6948 76.5996 96.4125 77.485 96.4125Z" fill="#E4A324"/>
<path d="M83.0631 94.8C83.9744 94.8 84.7131 94.0613 84.7131 93.15C84.7131 92.2387 83.9744 91.5 83.0631 91.5C82.1518 91.5 81.4131 92.2387 81.4131 93.15C81.4131 94.0613 82.1518 94.8 83.0631 94.8Z" fill="#E4A324"/>
<path d="M77.7662 87.4125C78.4963 87.4125 79.0881 86.8207 79.0881 86.0907C79.0881 85.3606 78.4963 84.7688 77.7662 84.7688C77.0362 84.7688 76.4443 85.3606 76.4443 86.0907C76.4443 86.8207 77.0362 87.4125 77.7662 87.4125Z" fill="#E4A324"/>
<path d="M81.2633 87.9094C81.9157 87.9094 82.4445 87.3805 82.4445 86.7281C82.4445 86.0757 81.9157 85.5469 81.2633 85.5469C80.6109 85.5469 80.082 86.0757 80.082 86.7281C80.082 87.3805 80.6109 87.9094 81.2633 87.9094Z" fill="#E4A324"/>
<path d="M86.2594 80.3249C86.9118 80.3249 87.4406 79.796 87.4406 79.1436C87.4406 78.4913 86.9118 77.9624 86.2594 77.9624C85.607 77.9624 85.0781 78.4913 85.0781 79.1436C85.0781 79.796 85.607 80.3249 86.2594 80.3249Z" fill="#E4A324"/>
<path d="M74.9535 73.6219C75.7768 73.6219 76.4441 72.9545 76.4441 72.1313C76.4441 71.308 75.7768 70.6406 74.9535 70.6406C74.1303 70.6406 73.4629 71.308 73.4629 72.1313C73.4629 72.9545 74.1303 73.6219 74.9535 73.6219Z" fill="#E4A324"/>
<path d="M82.4438 84.7593C83.4482 84.7593 84.2625 83.945 84.2625 82.9406C84.2625 81.9361 83.4482 81.1218 82.4438 81.1218C81.4393 81.1218 80.625 81.9361 80.625 82.9406C80.625 83.945 81.4393 84.7593 82.4438 84.7593Z" fill="#E4A324"/>
<path d="M77.6725 79.1345C78.6614 79.1345 79.4631 78.3328 79.4631 77.3439C79.4631 76.3549 78.6614 75.5532 77.6725 75.5532C76.6835 75.5532 75.8818 76.3549 75.8818 77.3439C75.8818 78.3328 76.6835 79.1345 77.6725 79.1345Z" fill="#E4A324"/>
<path d="M83.7662 76.4907C84.4963 76.4907 85.0881 75.8989 85.0881 75.1688C85.0881 74.4388 84.4963 73.8469 83.7662 73.8469C83.0362 73.8469 82.4443 74.4388 82.4443 75.1688C82.4443 75.8989 83.0362 76.4907 83.7662 76.4907Z" fill="#E4A324"/>
<path d="M38.8686 39.1031L33.0936 34.9219C33.0936 34.9219 30.7499 37.6219 22.6499 39.0281C15.7124 40.2281 8.24986 44.1844 8.96236 67.2281C9.58111 87.3281 12.2905 91.9031 23.9342 94.65C34.078 97.05 34.0592 99.8531 34.0592 99.8531L39.1405 96.2719V71.4094L38.8686 39.1031ZM26.2405 84.4125C19.7342 84.4125 19.7342 77.0344 19.7342 67.9312C19.7342 58.8281 19.7342 51.45 26.2405 51.45C32.7467 51.45 32.7467 58.8281 32.7467 67.9312C32.7467 77.0344 32.3436 84.4125 26.2405 84.4125Z" fill="#E0E0E0"/>
<path d="M94.6972 105.469C94.1441 107.072 92.1941 110.062 86.6628 112.209C83.2597 113.531 78.2534 114.703 74.1284 114.291C73.2472 114.206 73.5191 113.344 74.1191 113.231C77.5597 112.622 80.8972 111.694 84.8628 110.1C90.0191 108.019 93.4691 105.253 93.9566 104.916C94.7816 104.334 94.7909 105.197 94.6972 105.469ZM52.6597 47.7186C51.2066 46.6124 50.0816 45.6374 48.0753 44.6905C47.1191 44.2405 45.6097 44.1655 44.2503 44.2124L44.4566 70.1624C44.4847 70.4343 44.7284 71.1561 45.6659 71.5499C46.4441 71.878 50.8972 72.9749 54.2628 73.5561C55.1441 73.6593 55.6784 73.2468 55.6972 72.8061L55.8003 49.2843C54.5909 48.853 53.3816 48.2624 52.6597 47.7186ZM22.9784 42.3093C20.0909 42.7968 18.1784 43.8936 16.2659 46.1155C14.9628 47.6343 13.2097 50.9624 13.3409 54.0186C13.3503 54.253 13.4722 55.5374 14.0066 55.4811C14.8316 55.3968 15.0566 54.3843 15.1316 53.953C15.3659 52.5374 16.9316 48.8905 17.9722 47.6999C19.9691 45.4124 22.6316 44.8593 23.7191 44.4843C24.3566 44.2593 26.0159 43.453 25.8941 42.8718C25.6784 41.9249 23.5784 42.2061 22.9784 42.3093Z" fill="white"/>
<path d="M44.2785 5.57819C43.2473 6.34694 42.291 7.24694 41.0535 7.62194C38.9817 8.25007 36.7692 7.39694 34.6129 8.25944C28.5192 10.6969 25.6504 15.7313 27.9285 21.8344C28.6879 23.8782 27.891 24.8532 27.3567 26.8688C25.8942 32.4001 29.7567 39.3657 35.8504 40.0313C39.4973 40.4251 43.0129 38.7094 46.5754 39.0844C49.5754 39.4032 51.1223 42.1876 53.7754 43.2282C56.2785 44.2032 59.091 44.4563 61.7629 44.3813C65.3535 44.2688 70.0504 41.4844 73.3317 44.0626C78.4129 48.0563 75.1035 56.2876 81.1879 59.9063C83.6817 61.3876 87.066 61.0313 89.4285 59.5407C93.966 56.6813 92.8692 50.7657 94.191 46.3688C94.5285 45.1969 95.0067 44.1282 96.0473 43.4063C97.0879 42.6844 98.241 42.8813 99.3848 42.4407C100.922 41.8407 102.375 41.0157 103.547 39.8438C104.916 38.4657 103.922 35.9063 106.21 35.4563C106.913 35.3157 107.832 34.9219 108.375 34.5094C111.329 32.2782 111.975 27.7876 109.847 24.7782C109.06 23.6719 108.46 23.3626 108.291 21.9938C108.132 20.7563 108.413 19.6782 107.935 18.4126C106.782 15.2907 103.932 13.3219 100.754 12.4688C100.163 12.3094 99.5348 12.1782 98.9254 12.0657C97.9035 11.8782 97.0504 11.8407 96.2723 11.0907C95.8692 10.7063 95.5598 10.1438 95.2692 9.67507C94.4629 8.39069 93.3848 7.37819 92.1942 6.45944C88.6598 3.73131 83.9535 3.10319 79.5848 3.70319C78.3942 3.86257 77.3535 4.26569 76.2285 4.67819C73.4067 5.70006 72.3098 3.84382 70.0504 2.65319C67.2379 1.17194 63.8723 1.13444 60.7879 1.58444C58.9785 1.84694 57.6379 2.91569 56.016 3.60006C54.1317 4.39694 53.0723 3.81569 51.1879 3.68444C49.5098 3.57194 47.7192 3.99381 46.1442 4.52819C45.4598 4.75319 44.8504 5.14694 44.2785 5.57819Z" fill="#E9E2CF"/>
<mask id="mask0_212_377" style="mask-type:luminance" maskUnits="userSpaceOnUse" x="27" y="1" width="85" height="60">
<path d="M44.2785 5.57819C43.2473 6.34694 42.291 7.24694 41.0535 7.62194C38.9817 8.25007 36.7692 7.39694 34.6129 8.25944C28.5192 10.6969 25.6504 15.7313 27.9285 21.8344C28.6879 23.8782 27.891 24.8532 27.3567 26.8688C25.8942 32.4001 29.7567 39.3657 35.8504 40.0313C39.4973 40.4251 43.0129 38.7094 46.5754 39.0844C49.5754 39.4032 51.1223 42.1876 53.7754 43.2282C56.2785 44.2032 59.091 44.4563 61.7629 44.3813C65.3535 44.2688 70.0504 41.4844 73.3317 44.0626C78.4129 48.0563 75.1035 56.2876 81.1879 59.9063C83.6817 61.3876 87.066 61.0313 89.4285 59.5407C93.966 56.6813 92.8692 50.7657 94.191 46.3688C94.5285 45.1969 95.0067 44.1282 96.0473 43.4063C97.0879 42.6844 98.241 42.8813 99.3848 42.4407C100.922 41.8407 102.375 41.0157 103.547 39.8438C104.916 38.4657 103.922 35.9063 106.21 35.4563C106.913 35.3157 107.832 34.9219 108.375 34.5094C111.329 32.2782 111.975 27.7876 109.847 24.7782C109.06 23.6719 108.46 23.3626 108.291 21.9938C108.132 20.7563 108.413 19.6782 107.935 18.4126C106.782 15.2907 103.932 13.3219 100.754 12.4688C100.163 12.3094 99.5348 12.1782 98.9254 12.0657C97.9035 11.8782 97.0504 11.8407 96.2723 11.0907C95.8692 10.7063 95.5598 10.1438 95.2692 9.67507C94.4629 8.39069 93.3848 7.37819 92.1942 6.45944C88.6598 3.73131 83.9535 3.10319 79.5848 3.70319C78.3942 3.86257 77.3535 4.26569 76.2285 4.67819C73.4067 5.70006 72.3098 3.84382 70.0504 2.65319C67.2379 1.17194 63.8723 1.13444 60.7879 1.58444C58.9785 1.84694 57.6379 2.91569 56.016 3.60006C54.1317 4.39694 53.0723 3.81569 51.1879 3.68444C49.5098 3.57194 47.7192 3.99381 46.1442 4.52819C45.4598 4.75319 44.8504 5.14694 44.2785 5.57819Z" fill="white"/>
</mask>
<g mask="url(#mask0_212_377)">
<path d="M109.688 18.9282C109.088 21.5813 107.025 23.8594 104.438 24.7032C101.85 25.5469 98.841 24.9469 96.7879 23.1563C95.8691 24.4126 93.3754 23.1938 92.6535 23.6813C91.9316 24.1782 90.4973 28.8188 87.8723 29.0438C86.2785 30.9657 83.6066 31.9313 81.1504 31.4719C78.6941 31.0126 76.866 26.5594 75.7691 26.7657C74.6723 26.9719 74.0535 28.5657 72.8441 28.6501C72.2441 28.6969 71.616 28.5938 71.0535 28.8094C69.9004 29.2501 69.5535 30.7594 68.541 31.4719C67.5754 32.1563 66.2441 31.9594 65.1191 32.3438C64.3973 32.5876 63.7785 33.0657 63.1316 33.4594C60.5535 35.0438 57.2535 35.4094 54.3941 34.4438C51.5254 33.4688 49.1348 31.1813 48.0473 28.3501C46.3785 30.2532 42.066 31.6407 40.7441 31.2563C39.4223 30.8719 38.1379 33.5344 36.3941 33.8813C34.5379 34.2469 32.6348 34.6219 30.7691 34.2938C28.9035 33.9657 27.066 32.7844 26.5316 30.9751C25.8191 33.4126 24.7035 35.7376 23.2598 37.8282L43.2848 47.1094C44.1941 47.5313 45.1316 47.9719 45.8348 48.6751C47.4848 50.3251 47.5879 53.0532 49.191 54.7407C50.8973 56.5407 53.691 56.6063 56.166 56.5501L63.3004 56.3813C64.4066 56.3532 65.5691 56.3438 66.5535 56.8407C69.2816 58.2376 69.0004 62.4469 71.2691 64.5094C73.0129 66.0844 75.666 65.9157 77.991 65.6438C84.5535 64.8751 91.116 64.0407 97.6598 63.1501C98.2691 63.0657 98.8973 62.9813 99.441 62.6907C100.191 62.2876 100.688 61.5657 101.185 60.8719C105.112 55.3048 109.831 50.3401 115.191 46.1344C116.55 45.0751 117.985 44.0157 118.819 42.5063C119.569 41.1563 119.757 39.5719 119.925 38.0344L120.488 33.1032C120.563 32.4188 120.638 31.7063 120.45 31.0407C120.179 30.1219 119.429 29.4282 118.744 28.7532C116.988 26.9915 115.511 24.9712 114.366 22.7626C113.822 21.7126 113.344 20.5969 112.519 19.7438C111.694 18.8907 110.419 18.3563 109.313 18.7688" fill="#E2D2BA"/>
</g>
<path d="M79.2845 42.4594C81.1688 44.1094 81.4501 46.9687 81.6001 49.5C81.7595 52.1344 82.5657 56.925 84.347 56.625C85.5563 56.2406 85.8001 54.6562 85.8188 53.3906C85.8657 50.2594 85.8938 47.0062 84.5907 44.1562C84.0188 42.9094 83.1563 41.7281 81.9188 41.1469C80.7938 40.6219 77.7563 40.4906 79.2845 42.4594Z" fill="#F6EEDA"/>
</svg>

<svg xmlns="http://www.w3.org/2000/svg" fill="none" aria-hidden="true" data-slot="icon" viewBox="0 0 120 120"><path fill="#E0E0E0" d="m37.969 30.469-4.847.234.975 71.4c0 11.981 17.381 16.556 33.694 16.556v-88.19zm59.644 0 4.847.234-.975 71.4c0 11.981-17.382 16.556-33.694 16.556v-88.19z"/><path fill="#FAFAFA" d="M67.79 22.369c-8.662 0-16.771.993-22.828 2.793-5.203 1.547-8.306 3.572-8.306 5.42 0 1.846 3.103 3.871 8.307 5.418 6.056 1.8 14.165 2.794 22.828 2.794S84.563 37.8 90.619 36c5.203-1.547 8.306-3.572 8.306-5.419s-3.103-3.872-8.306-5.419c-6.056-1.8-14.166-2.793-22.828-2.793"/><path fill="#FACC30" d="m40.06 57.788.328 39.722c.262 2.23 2.09 4.378 4.584 5.521 4.463 2.053 13.2 4.069 22.875 4.069 9.235 0 17.09-1.837 21.656-3.769 2.888-1.218 5.222-3.675 5.57-5.793l.44-39.75"/><path fill="#E4A324" d="M67.79 64.631c15.316 0 27.732-3.064 27.732-6.843s-12.416-6.844-27.731-6.844-27.731 3.064-27.731 6.844 12.415 6.843 27.73 6.843"/><path fill="#CECFD0" d="M67.79 40.519c-19.771 0-34.678-4.266-34.678-9.928s14.907-9.928 34.678-9.928c19.772 0 34.679 4.265 34.679 9.928-.01 5.653-14.916 9.928-34.679 9.928m0-18.15c-8.662 0-16.771.994-22.828 2.794-5.203 1.546-8.306 3.572-8.306 5.418s3.103 3.872 8.306 5.42c6.057 1.8 14.166 2.793 22.828 2.793 8.663 0 16.772-.994 22.829-2.794 5.203-1.547 8.306-3.572 8.306-5.419s-3.103-3.872-8.306-5.418c-6.057-1.8-14.166-2.794-22.829-2.794"/><path fill="#E4A324" d="M80.42 101.466a1.322 1.322 0 1 0 0-2.644 1.322 1.322 0 0 0 0 2.644m2.934-4.05a.91.91 0 1 0 0-1.82.91.91 0 0 0 0 1.82m-5.869-1.003a1.603 1.603 0 1 0 0-3.207 1.603 1.603 0 0 0 0 3.206m5.578-1.612a1.65 1.65 0 1 0 0-3.3 1.65 1.65 0 0 0 0 3.3m-5.297-7.387a1.322 1.322 0 1 0 0-2.644 1.322 1.322 0 0 0 0 2.643m3.497.498a1.181 1.181 0 1 0 0-2.363 1.181 1.181 0 0 0 0 2.362m4.997-7.584a1.181 1.181 0 1 0 0-2.363 1.181 1.181 0 0 0 0 2.363m-11.306-6.703a1.49 1.49 0 1 0 0-2.981 1.49 1.49 0 0 0 0 2.98m7.49 11.139a1.819 1.819 0 1 0 0-3.638 1.819 1.819 0 0 0 0 3.637m-4.771-5.624a1.79 1.79 0 1 0 0-3.582 1.79 1.79 0 0 0 0 3.582m6.093-2.645a1.322 1.322 0 1 0 0-2.643 1.322 1.322 0 0 0 0 2.644"/><path fill="#E0E0E0" d="m38.869 39.103-5.775-4.181s-2.344 2.7-10.444 4.106c-6.938 1.2-14.4 5.156-13.688 28.2.62 20.1 3.329 24.675 14.972 27.422 10.144 2.4 10.125 5.203 10.125 5.203l5.082-3.581V71.409zM26.24 84.413c-6.507 0-6.507-7.379-6.507-16.482s0-16.481 6.506-16.481 6.507 7.378 6.507 16.481-.403 16.481-6.506 16.481"/><path fill="#fff" d="M94.697 105.469c-.553 1.603-2.503 4.593-8.034 6.74-3.403 1.322-8.41 2.494-12.535 2.082-.88-.085-.609-.947-.009-1.06 3.44-.609 6.778-1.537 10.744-3.131 5.156-2.081 8.606-4.847 9.094-5.184.825-.582.834.281.74.553M52.66 47.719c-1.453-1.107-2.578-2.082-4.585-3.029-.956-.45-2.465-.524-3.825-.478l.207 25.95c.028.272.271.994 1.209 1.388.778.328 5.231 1.425 8.597 2.006.881.103 1.415-.31 1.434-.75l.103-23.522c-1.21-.431-2.418-1.022-3.14-1.565m-29.682-5.41c-2.887.488-4.8 1.585-6.712 3.807-1.303 1.518-3.056 4.846-2.925 7.903.01.234.131 1.518.666 1.462.825-.084 1.05-1.097 1.125-1.528.234-1.416 1.8-5.062 2.84-6.253 1.997-2.288 4.66-2.84 5.747-3.216.638-.225 2.297-1.031 2.175-1.612-.216-.947-2.316-.666-2.916-.563"/><path fill="#E9E2CF" d="M44.279 5.578c-1.032.769-1.988 1.669-3.226 2.044-2.071.628-4.284-.225-6.44.637-6.094 2.438-8.963 7.472-6.684 13.575.759 2.044-.038 3.02-.572 5.035-1.463 5.531 2.4 12.497 8.493 13.162 3.647.394 7.163-1.322 10.725-.947 3 .32 4.547 3.104 7.2 4.144 2.504.975 5.316 1.228 7.988 1.153 3.59-.112 8.287-2.897 11.569-.318 5.08 3.993 1.772 12.225 7.856 15.843 2.494 1.482 5.878 1.125 8.24-.365 4.538-2.86 3.441-8.775 4.763-13.172.337-1.172.816-2.24 1.856-2.963s2.194-.525 3.338-.965c1.537-.6 2.99-1.425 4.162-2.597 1.369-1.378.375-3.938 2.663-4.388.703-.14 1.622-.534 2.165-.947 2.954-2.23 3.6-6.721 1.472-9.73-.787-1.107-1.387-1.416-1.556-2.785-.159-1.238.122-2.316-.356-3.581-1.153-3.122-4.003-5.091-7.181-5.944a24 24 0 0 0-1.829-.403c-1.022-.188-1.875-.225-2.653-.975-.403-.385-.712-.947-1.003-1.416-.806-1.284-1.884-2.297-3.075-3.216-3.534-2.728-8.24-3.356-12.61-2.756-1.19.16-2.23.563-3.356.975-2.821 1.022-3.918-.834-6.178-2.025-2.812-1.481-6.178-1.519-9.262-1.069-1.81.263-3.15 1.332-4.772 2.016-1.884.797-2.944.216-4.828.084-1.678-.112-3.469.31-5.044.844-.684.225-1.294.619-1.865 1.05"/><mask id="a" width="85" height="60" x="27" y="1" maskUnits="userSpaceOnUse" style="mask-type:luminance"><path fill="#fff" d="M44.279 5.578c-1.032.769-1.988 1.669-3.226 2.044-2.071.628-4.284-.225-6.44.637-6.094 2.438-8.963 7.472-6.684 13.575.759 2.044-.038 3.02-.572 5.035-1.463 5.531 2.4 12.497 8.493 13.162 3.647.394 7.163-1.322 10.725-.947 3 .32 4.547 3.104 7.2 4.144 2.504.975 5.316 1.228 7.988 1.153 3.59-.112 8.287-2.897 11.569-.318 5.08 3.993 1.772 12.225 7.856 15.843 2.494 1.482 5.878 1.125 8.24-.365 4.538-2.86 3.441-8.775 4.763-13.172.337-1.172.816-2.24 1.856-2.963s2.194-.525 3.338-.965c1.537-.6 2.99-1.425 4.162-2.597 1.369-1.378.375-3.938 2.663-4.388.703-.14 1.622-.534 2.165-.947 2.954-2.23 3.6-6.721 1.472-9.73-.787-1.107-1.387-1.416-1.556-2.785-.159-1.238.122-2.316-.356-3.581-1.153-3.122-4.003-5.091-7.181-5.944a24 24 0 0 0-1.829-.403c-1.022-.188-1.875-.225-2.653-.975-.403-.385-.712-.947-1.003-1.416-.806-1.284-1.884-2.297-3.075-3.216-3.534-2.728-8.24-3.356-12.61-2.756-1.19.16-2.23.563-3.356.975-2.821 1.022-3.918-.834-6.178-2.025-2.812-1.481-6.178-1.519-9.262-1.069-1.81.263-3.15 1.332-4.772 2.016-1.884.797-2.944.216-4.828.084-1.678-.112-3.469.31-5.044.844-.684.225-1.294.619-1.865 1.05"/></mask><g mask="url(#a)"><path fill="#E2D2BA" d="M109.688 18.928c-.6 2.653-2.663 4.931-5.25 5.775s-5.597.244-7.65-1.547c-.919 1.257-3.413.038-4.135.525-.721.497-2.156 5.138-4.78 5.363-1.595 1.922-4.266 2.887-6.723 2.428s-4.284-4.913-5.38-4.706c-1.098.206-1.716 1.8-2.926 1.884-.6.047-1.228-.056-1.79.16-1.154.44-1.5 1.95-2.513 2.662-.966.684-2.297.487-3.422.872-.722.244-1.34.722-1.987 1.115-2.578 1.585-5.878 1.95-8.738.985-2.869-.975-5.26-3.263-6.347-6.094-1.668 1.903-5.981 3.29-7.303 2.906s-2.606 2.278-4.35 2.625c-1.856.366-3.76.74-5.625.413-1.865-.328-3.703-1.51-4.237-3.319a23.9 23.9 0 0 1-3.272 6.853l20.025 9.281c.91.422 1.847.863 2.55 1.566 1.65 1.65 1.753 4.378 3.356 6.066 1.706 1.8 4.5 1.865 6.975 1.81l7.134-.17c1.107-.028 2.27-.037 3.254.46 2.728 1.397 2.446 5.606 4.715 7.668 1.744 1.575 4.397 1.407 6.722 1.135 6.563-.769 13.125-1.603 19.669-2.494.61-.084 1.237-.169 1.781-.46.75-.402 1.247-1.124 1.744-1.818a70 70 0 0 1 14.006-14.738c1.359-1.059 2.794-2.118 3.628-3.628.75-1.35.938-2.934 1.106-4.472l.563-4.93c.075-.685.15-1.398-.038-2.063-.271-.92-1.021-1.613-1.706-2.288a24.4 24.4 0 0 1-4.378-5.99c-.544-1.05-1.022-2.166-1.847-3.02-.825-.852-2.1-1.387-3.206-.974"/></g><path fill="#F6EEDA" d="M79.285 42.46c1.884 1.65 2.165 4.509 2.315 7.04.16 2.634.966 7.425 2.747 7.125 1.21-.384 1.453-1.969 1.472-3.234.047-3.132.075-6.385-1.228-9.235-.572-1.247-1.435-2.428-2.672-3.01-1.125-.524-4.163-.655-2.635 1.313"/></svg>
